X:117
T:Windsor Forest. Ru2.117
%%VWML:RutherfordVol2-2249-p59-0
F:http://www.vwml.org/record/RutherfordVol2/2249/p59
B:RUTHERFORD Complete Collection of 200 Country Dances Vol.2; 1759.
Z:vmp.Mike Hicken 2015 www.village-music-project.org.uk
M:C
Q:1/2=130
K:Bb
BdfB|AcfA|Ge/d/ cB|AGFE|DFBD|CEAc|{Bc}d2 FA|B2B,2 :|
|:BdfB|AcfA|Gf=ef|g/f/=e/d/ cB|AcfA|Gf=eg|f/g/a c=e|f2F2|
dfbd|cbac|B (g/f/) e/d/c/B/ | AGFE|DFBD|CBAc|{Bc}d2 FA|B2B,2 |]
W:
W: F(oo)t it 4 & change sides .|  the same back again
W: :|  cross over two Cu: Lead to the top & cast off .|.
W: Hands round 4 with the 3d Cu: Right hands &
W: Left at top :|.
T:Patties Whim. Ru2.118
T:Lass and the Money is all My Own,aka. Ru2.118, The
L:1/8
B:RUTHERFORD Complete Collection of 200 Country Dances Vol.2; 1759.
Z:vmp.Mike Hicken 2015 www.village-music-project.org.uk
M:6/8
Q:3/8=110
K:A
f|ecA ABc|{Bc}d2c TB2A|ecA AcA|B2c d2f|
ecA ABc|{Bc}d2c TB2 A|(c/d/e)c (B/c/d)B |cAA A2 :|
|: e|fdf ece|fdf ece|fga edc|B2c d2f|
efg agf|edc TB2A|(c/d/e)c (B/c/d)B|cAA A2 :|
W:
W: First Cu: cast off two Cu: .|  Lead to the top &
W: cast off :|  Lead thro the 3d. Cu. cast up into the
W: 2d Cu: place .|.  Right hands & Left at top :|.
